X:1
T: Aaron Macpherson's Welcome Reel
C:Bruce Shawyer based on a pipe tune by Ewan Macpherson
R:Reel
Q:232
K:D
M:4/4
L:1/16
|:A4|"D"f2e2f2a2 A4A4|f2A2e2f2 g2f2e2d2|"A7"c4e2c2 A4e4|g2e2c2A2 e4A4|
"D"f2e2f2a2 A4A4|f2A2e2f2 g2f2e2d2|"A7"c4e2c2 A4g4|"A7"g2e2c2A2 :D:d4:|
|:A4|"D"A4d2e2 f4d2e2|f4A4 d4e2f2|"G"g2f2e2d2 "A7"c4e2f2|"G"g2f2e2d2 "A7"e4a4|
"D"A4d2e2 f4d2e2|f4A4 d2f2e2d2|"A7"c4d2c2 "G"B4g4|"A7"g2e2c2A2 "D"d4:|
